tools/download-figma-icons/icons/action/lock.svg

<svg width="24" height="24" viewBox="0 0 24 24" fill="none" xmlns="http://www.w3.org/2000/svg">
<path fill-rule="evenodd" clip-rule="evenodd" d="M18.2271 21.9998C18.7271 21.9998 19.1331 21.5928 19.1331 21.0928V11.9239C19.1331 11.4239 18.7271 11.0169 18.2271 11.0169H5.90724C5.40724 11.0169 5.00025 11.4239 5.00025 11.9239V21.0928C5.00025 21.5928 5.40724 21.9998 5.90724 21.9998H18.2271ZM12.1492 1.99998C10.3142 1.99998 8.82121 3.49296 8.82121 5.32795V9.01691H15.4771V5.32795C15.4771 3.49296 13.9842 1.99998 12.1492 1.99998ZM17.4771 9.01691H18.2271C19.8291 9.01691 21.1331 10.3209 21.1331 11.9239V21.0928C21.1331 22.6958 19.8291 23.9998 18.2271 23.9998H5.90724C4.30425 23.9998 3.00027 22.6958 3.00027 21.0928V11.9239C3.00027 10.3209 4.30425 9.01691 5.90724 9.01691H6.82123V5.32795C6.82123 2.38998 9.2122 0 12.1492 0C15.0871 0 17.4771 2.38998 17.4771 5.32795V9.01691ZM11.0668 14.6749C11.0668 14.1229 11.5148 13.6749 12.0668 13.6749C12.6188 13.6749 13.0668 14.1229 13.0668 14.6749V18.3418C13.0668 18.8938 12.6188 19.3418 12.0668 19.3418C11.5148 19.3418 11.0668 18.8938 11.0668 18.3418V14.6749Z" fill="black"/>
</svg>

<svg width="24" height="24" viewBox="0 0 24 24" fill="none" xmlns="http://www.w3.org/2000/svg"><path fill-rule="evenodd" clip-rule="evenodd" d="M18.227 22c.5 0 .906-.407.906-.907v-9.17c0-.5-.406-.906-.906-.906H5.907c-.5 0-.907.407-.907.907v9.169c0 .5.407.907.907.907h12.32ZM12.15 2a3.332 3.332 0 0 0-3.328 3.328v3.689h6.656V5.328A3.332 3.332 0 0 0 12.15 2Zm5.328 7.017h.75a2.91 2.91 0 0 1 2.906 2.907v9.169A2.91 2.91 0 0 1 18.227 24H5.907A2.91 2.91 0 0 1 3 21.093v-9.17a2.91 2.91 0 0 1 2.907-2.906h.914V5.328A5.334 5.334 0 0 1 12.15 0a5.334 5.334 0 0 1 5.328 5.328v3.689Zm-6.41 5.658a1 1 0 0 1 2 0v3.667a1 1 0 0 1-2 0v-3.667Z" fill="currentColor"/></svg>
